icons/mail-star-line.svg

<svg viewBox="0 0 24 24" fill="currentColor" xmlns="http://www.w3.org/2000/svg"><path d="M22 13H20V7.23792L12.0718 14.338L4 7.21594V19H14V21H3C2.44772 21 2 20.5523 2 20V4C2 3.44772 2.44772 3 3 3H21C21.5523 3 22 3.44772 22 4V13ZM4.51146 5L12.0619 11.662L19.501 5H4.51146ZM19.5 21.75L16.855 23.1406L17.3601 20.1953L15.2202 18.1094L18.1775 17.6797L19.5 15L20.8225 17.6797L23.7798 18.1094L21.6399 20.1953L22.145 23.1406L19.5 21.75Z"/></svg>

<svg xmlns="http://www.w3.org/2000/svg" viewBox="0 0 24 24">
    <g>
        <path fill="none" d="M0 0h24v24H0z"/>
        <path d="M22 13h-2V7.238l-7.928 7.1L4 7.216V19h10v2H3a1 1 0 0 1-1-1V4a1 1 0 0 1 1-1h18a1 1 0 0 1 1 1v9zM4.511 5l7.55 6.662L19.502 5H4.511zM19.5 21.75l-2.645 1.39.505-2.945-2.14-2.086 2.957-.43L19.5 15l1.323 2.68 2.957.43-2.14 2.085.505 2.946L19.5 21.75z"/>
    </g>
</svg>
